!!!COM: Mozart, Wolfgang Amadeus
!!!CDT: 1756/01/27/-1791/12/05/
!!!CNT: German
!!!OTL: Piano Sonata No. 6 in D major
!!!SCT1: K<sup>1</sup> 284
!!!SCT2: K<sup>6</sup> 205b
!!!OMV: Mvmt. 3h
!!!OMD: Variation 7: Minore
!!!ODT: 1775///
**kern	**kern	**dynam
*staff2	*staff1	*staff1
*>[A,A,B,B]	*>[A,A,B,B]	*>[A,A,B,B]
*>norep[A,B]	*>norep[A,B]	*>norep[A,B]
*>A	*>A	*>A
*clefF4	*clefG2	*clefG2
*k[b-]	*k[b-]	*k[b-]
*d:	*d:	*d:
*M2/2	*M2/2	*M2/2
*met(c|)	*met(c|)	*met(c|)
*MM110	*MM110	*MM110
=	=	=
2r	(8a\L	p
.	8b-\	.
.	8a\	.
.	8cc#\J	.
*clefG2	*	*
=1	=1	=1
8r	4dd'\)	.
8d/ 8f/ 8a/L	.	.
8d/ 8f/ 8a/	4r	.
8d/ 8f/ 8a/J	.	.
8r	(4.aat\	.
8d/ 8f/ 8a/L	.	.
8d/ 8f/ 8a/	.	.
8d/ 8f/ 8a/J	16gg\LL	.
.	16ff\JJ	.
*clefF4	*	*
=2	=2	=2
8r	4ee\)	.
8G\ 8B-\ 8e\L	.	.
8G\ 8B-\ 8e\	4r	.
8G\ 8B-\ 8e\J	.	.
8r	(4.ggT\	.
8A\ 8c#\ 8e\L	.	.
8A\ 8c#\ 8e\	.	.
8A\ 8c#\ 8e\J	16ff\LL	.
.	16ee\JJ	.
=3	=3	=3
*	*^	*
4D\ (4d\	2.ryy	8ff\L	f
.	.	8dd\	.
4Cn\ 4cn\	.	8ff#\	.
.	.	8dd\J	.
4BBn\ 4Bn\	.	8gg\L	.
.	.	8dd\	.
4BB-\ 4B-\)	4ddd/)	8gg#\	.
.	.	8dd\J	.
=4	=4	=4	=4
2AA\ 2A\	2aa/	(4ffn\ 4ddd\	.
.	.	4ee\ 4ccc#\)	.
2r	(8a\L	2ryy	p
.	8b-\	.	.
.	8a\	.	.
.	8cc#\J	.	.
*	*v	*v	*
=5	=5	=5
8r	4dd'\)	.
8F\ 8A\ 8d\L	.	.
8F\ 8A\ 8d\	4r	.
8F\ 8A\ 8d\J	.	.
8r	(4.ddT\	<
8F\ 8A\ 8d\L	.	.
8F\ 8A\ 8d\	.	.
8F\ 8A\ 8d\J	16cc#\LL	.
.	16dd\JJ	.
=6	=6	=6
8r	4dd#\)	.
8F\ 8A\ 8c\L	.	.
8F\ 8A\ 8c\	4r	.
8F\ 8A\ 8c\J	.	.
8r	(4.dd#t\	f
8F\ 8A\ 8c\L	.	.
8F\ 8A\ 8c\	.	.
8F\ 8A\ 8c\J	16cc##\LL	.
.	16dd#\JJ	.
=7	=7	=7
4E\ 4A\ 4c\	4ee\)	.
4r	2a/	p
2E\ 2Bn\ 2d\	.	.
.	(8.bn/L	.
.	16g#/Jk	.
=8	=8	=8
4A\ 4c\	4a/)	.
4r	4r	.
=:|!|:	=:|!|:	=:|!|:
*>B	*>B	*>B
2r	(8aa\L	p
.	8gg#\	.
.	8aa\	.
.	8bbn\J	.
*clefG2	*	*
=9	=9	=9
(4f#/ 4a/	8ccc\L	.
.	8ee-\	.
4g/ 4bn/	8dd\	.
.	8bbn\J	.
4e/ 4g/	8bb-\L	.
.	8cc#\	.
4fn/) 4a/	8dd\	.
.	8aa\J)	.
*clefF4	*	*
=10	=10	=10
*	*^	*
(8B-X\L	(4gg/	4dd\	f
8BB-\	.	.	.
8AA\	4ffn/	4ccn\	.
8A\J)	.	.	.
(8G\L	4ee-/	4b-\	.
8GG\	.	.	.
8FF\	4dd/)	4a\	.
8F\J)	.	.	.
=11	=11	=11	=11
8E'\	(8cc#/L	8g'\	p
8r	8dd/	8r	.
4r	8een/	4r	.
.	8dd/J)	.	.
8F'\	(8dd/L	8a'\	.
8r	8ee/	8r	.
4r	8ff/	4r	.
.	8ee/J)	.	.
=12	=12	=12	=12
8A\	8ee/	8cc#\	.
8r	8r	8ryy	.
4r	4r	4ryy	.
(8EE/L	2r	2ryy	.
8FF/	.	.	.
8EE/	.	.	.
8GG#/J	.	.	.
*	*v	*v	*
=13	=13	=13
4AA/)	2r	.
4r	.	.
2r	(8a\L	.
.	8b-X\	.
.	8a\	.
.	8cc#\J	.
=14	=14	=14
8r	4dd'\)	.
8F\ 8A\ 8d\L	.	.
8F\ 8A\ 8d\	4r	.
8F\ 8A\ 8d\J	.	.
8r	(4.eet\	.
8G\ 8B-\ 8d\L	.	.
8G\ 8B-\ 8d\	.	.
8G\ 8B-\ 8d\J	16dd\LL	.
.	16ee\JJ	.
=15	=15	=15
8r	4ff#\)	.
8A\ 8cn\ 8d\L	.	.
8A\ 8c\ 8d\	4r	.
8A\ 8c\ 8d\J	.	.
8r	(4.ggT\	.
8Bn\ 8d\L	.	.
8B\ 8d\	.	.
8B\ 8d\J	16ff#X\LL	.
.	16gg\JJ	.
=16	=16	=16
*^	*	*
2.ryy	4B-X\ 4d\	4gg#\	.
.	2A\ 2d\ 2f\	2aa\)	.
(8.g/L	4A\	(8.ee\L	p
16e/Jk	.	16cc#\Jk	.
=17	=17	=17	=17
4f/)	4d\	4dd\)	.
4r	4ryy	4r	.
*v	*v	*	*
==:|!	==:|!	==:|!
*-	*-	*-
!!!SMS: Alte Mozart-Ausgabe, Band 20, Breitkopf &amp; H&auml;rtel 1877-1883.
!!!ONB: Stich und Druck von Breitkopf &amp; H&auml;rtel in Leipzig
!!!ONB: Ausgegeben 1878
!!!ENC: Craig Stuart Sapp
!!!END: 2009/09/22/
!!!title: @{OTL}, K 284 (205b), @{OMV}
!!!hum2abc: --no-tempo 
